X: 4
T: Amelia's
R: waltz
M: 3/4
L: 1/8
K: Dmaj
|:A,4 |D6 E2 D4 |D4 F6 E2 |D4 F4 B4 |A8 A4 |B6 G2 B4 |A4 F4 E4 |D4 B,6 B,2 |B,8 A,4 |D6 E2 D4 |D4 F6 E2 |D4 F4 B4 |A8 A4 |B6 c2 d4 |d4 e4 f4 |e6 c2 A4 |A8 :|:a4 |f4 a6 f2 |a4 f4 d4 |e6 c2 A4 |A8 f2e2 |d6 B2 d4 |f4 d4 B4 |c6 A2 F4 |F8 A4 |G4 B6 G2 |F4 A4 d4 |e6 c2 A4 |d8 f4 |g6 f2 e4 |a4 f4 d4 |d6 e2 c4 |d8 :|


Tune 6939	Setting 18524

